X:1
T:When I Get to the End of the Way
T:Charles Davis (Charlie) Tillman, 1895
T:When I Get to the End of the Way
T:Public Domain
T:Public Domain
C:Charles Davis (Charlie) Tillman, 1895
Z:Public Domain
%%score ( 1 2 ) ( 3 4 )
L:1/8
M:6/8
K:Db
V:1 treble 
V:2 treble 
V:3 bass 
V:4 bass 
V:1
 [FA]/[FA]/ | [Fd]>[Fd][Fd] [DF][EG][FA] | [Ac] [GB]2- [GB]2 [GB]/[GB]/ | %3
w: 1.~Th- e|sands have been washed in the|foot- prints * Of the|
w: 2.~There are|so ma- ny hills to climb|up- ward, * I ~|
w: 3.~H- e|loves me too well to for-|sake me, * O- r|
w: 4.~When the|last fee- ble steps have been|tak- en, * And the|
 [FA][Ac][GB] [FA][GB][FA] | [FA]3- [FA]2 [FA]/[FA]/ | [Fd]>[Fd][Fd] [DF][EG][FA] | %6
w: Strang- er on Gal- i- lee’s|shore; * And the|voice that sub- dued the rough|
w: of- ten am long- ing for|rest; * B- ut|He who ap- points me my|
w: give me a tri- al too|much; * H- is|peo- ple have been dear- ly|
w: gates of that ci- ty ap-|pear, * And the|beau- ti- ful songs of the|
 [Ac] [GB]2- [GB]2 [GB]/[GB]/ | [FA][Ec][DB] [CA][CG][CE] | D3- D2 | [DF]/[DF]/ | %10
w: bil- lows * Will be|heard in Ju- de- a no|more, *|the path|
w: path- way, * Kno- ws|just what is need- ful and|best. *|~ know|
w: pur- chased, * A- nd|Sa- tan can nev- er claim|such. *|and by|
w: an- gels * Flo- at|out on my lis- ten- ing|ear; *|en all|
 [CE][DF][EG] [Gc][GB][GA] | [FA] [Fd]2- [Fd]2 [Fd]/[Fd]/ | [Ec][EB][Ac] [=Ge][Gd][EB] | %13
w: of that lone Ga- li- le-|an, Wi- * th joy|I will fol- low to- day,|
w: in His Word He hath prom-|ised That * my strength|it shall be as my day;|
w: I shall see Him and praise|Him, In * the ci-|ty of un- end- ing day;|
w: that now seems so mys- ter-|ious, Will * be bright|and as clear as the day,|
 [EA]3- [EA]2 [FA]/[FA]/ |] %14
w: And * the *|
w: And * the *|
w: And * the *|
w: Then * the *|
V:2
 x | x6 | x6 | x6 | x6 | x6 | x6 | x6 | D3- D2 | x | x6 | x6 | x6 | x6 |] %14
w: ||||||||But *||||||
w: ||||||||I *||||||
w: ||||||||By *||||||
w: ||||||||Wh- *||||||
V:3
 [B,,D]/[B,,D]/ | [D,A,]>[D,A,][D,A,] [D,A,][D,A,][D,D] | [G,D] [G,D]2- [G,D]2 [G,D]/[G,D]/ | %3
w: ~ ~|toils of the road will seem|no- thing * When I|
 A,A,A, [A,,A,][A,,A,][A,,A,] | [D,A,]3- [D,A,]2 [D,D]/[D,D]/ | %5
w: get to the end of the|toils * of the|
 [D,A,]>[D,A,][D,A,] [D,A,][D,A,][D,D] | [G,D] [G,D]2- [G,D]2 [G,D]/[G,D]/ | %7
w: road will seem no- thing When|I get * to the|
 [A,D]A,A, [A,,A,][A,,A,][A,,G,] | [D,F,]3- [D,F,]2 | [D,A,]/[D,A,]/ | %10
w: end of the way. * *|||
 [A,,A,][A,,A,][A,,A,] [A,,A,][A,,C][A,,C] | [D,D] [D,A,]2- [D,A,]2 [D,A,]/[D,A,]/ | %12
w: ||
 [E,A,][E,=G,][E,A,] [E,B,][E,B,][E,D] | [A,C]3- [A,C]2 [D,D]/[D,D]/ |] %14
w: ||
V:4
 x | x6 | x6 | A,A,A, x3 | x6 | x6 | x6 | x A,A, x3 | x5 | x | x6 | x6 | x6 | x6 |] %14
w: |||way, Th- e|||||||||||

